dist/assets/images/weather/weather_13.svg

<svg width="86" height="86" viewBox="0 0 86 86" fill="none" xmlns="http://www.w3.org/2000/svg">
<path d="M31.7933 13.3031C36.0698 13.3018 40.2656 14.4673 43.9287 16.6742C47.5919 18.881 50.5834 22.0456 52.5811 25.8268C55.0348 24.3923 57.7864 23.5432 60.6218 23.3456C63.4572 23.1479 66.3 23.6071 68.929 24.6874C71.558 25.7677 73.9023 27.44 75.7796 29.5741C77.6568 31.7082 79.0164 34.2467 79.7526 36.992C80.4887 39.7373 80.5816 42.6154 80.0239 45.4025C79.4663 48.1895 78.2732 50.8103 76.5374 53.061C74.8016 55.3117 72.5699 57.1316 70.0161 58.3792C67.4622 59.6267 64.6549 60.2682 61.8126 60.2537L31.7261 60.3344C25.4893 60.3344 19.5081 57.8568 15.098 53.4468C10.688 49.0367 8.21045 43.0555 8.21045 36.8187C8.21045 30.582 10.688 24.6007 15.098 20.1907C19.5081 15.7806 25.4893 13.3031 31.7261 13.3031H31.7933Z" fill="url(#paint0_linear)"/>
<path d="M79.6811 46.755C82.427 36.9271 76.6858 26.734 66.8579 23.9881C57.0299 21.2423 46.8368 26.9834 44.091 36.8114C41.3451 46.6393 47.0863 56.8324 56.9142 59.5783C66.7422 62.3241 76.9352 56.583 79.6811 46.755Z" fill="url(#paint1_linear)"/>
<path d="M50.8474 66.5156H64.5805" stroke="#A5A9AA" stroke-width="3" stroke-miterlimit="10" stroke-linecap="round"/>
<path d="M21.4194 66.5156H43.9944" stroke="#B9C1C6" stroke-width="3" stroke-miterlimit="10" stroke-linecap="round"/>
<path d="M44.6528 73.2344H59.8641" stroke="#A5A9AA" stroke-width="3" stroke-miterlimit="10" stroke-linecap="round"/>
<path d="M26.8213 73.2344H37.1547" stroke="#A5A9AA" stroke-width="3" stroke-miterlimit="10" stroke-linecap="round"/>
<defs>
<linearGradient id="paint0_linear" x1="25.8673" y1="62.3365" x2="54.207" y2="25.6387" gradientUnits="userSpaceOnUse">
<stop stop-color="#F2F2F2"/>
<stop offset="1" stop-color="#CFCFCF"/>
</linearGradient>
<linearGradient id="paint1_linear" x1="69.4413" y1="35.2159" x2="48.0374" y2="53.8473" gradientUnits="userSpaceOnUse">
<stop offset="0.02" stop-color="white"/>
<stop offset="1" stop-color="white" stop-opacity="0"/>
</linearGradient>
</defs>
</svg>

<svg width="86" height="86" fill="none" xmlns="http://www.w3.org/2000/svg"><path d="M31.793 13.303a23.502 23.502 0 0120.788 12.524 18.477 18.477 0 119.232 34.427l-30.087.08a23.516 23.516 0 010-47.03h.067z" fill="url(#paint0_linear)"/><path d="M79.681 46.755c2.746-9.828-2.995-20.021-12.823-22.767-9.828-2.746-20.021 2.995-22.767 12.823-2.746 9.828 2.995 20.021 12.823 22.767 9.828 2.746 20.021-2.995 22.767-12.823z" fill="url(#paint1_linear)"/><path d="M50.847 66.516H64.58" stroke="#A5A9AA" stroke-width="3" stroke-miterlimit="10" stroke-linecap="round"/><path d="M21.42 66.516h22.574" stroke="#B9C1C6" stroke-width="3" stroke-miterlimit="10" stroke-linecap="round"/><path d="M44.653 73.234h15.211m-33.043 0h10.334" stroke="#A5A9AA" stroke-width="3" stroke-miterlimit="10" stroke-linecap="round"/><defs><linearGradient id="paint0_linear" x1="25.867" y1="62.337" x2="54.207" y2="25.639" gradientUnits="userSpaceOnUse"><stop stop-color="#F2F2F2"/><stop offset="1" stop-color="#CFCFCF"/></linearGradient><linearGradient id="paint1_linear" x1="69.441" y1="35.216" x2="48.037" y2="53.847" gradientUnits="userSpaceOnUse"><stop offset=".02" stop-color="#fff"/><stop offset="1" stop-color="#fff" stop-opacity="0"/></linearGradient></defs></svg>
